images_sukapura_svg/cmd/sc_beziercutline.svg

<svg viewBox="0 0 16 16" xmlns="http://www.w3.org/2000/svg" xmlns:xlink="http://www.w3.org/1999/xlink"><linearGradient id="a"><stop offset="0" stop-color="#0040dd"/><stop offset="1" stop-color="#0a84ff"/></linearGradient><linearGradient id="b" gradientTransform="translate(-18.169492 -1.059537)" gradientUnits="userSpaceOnUse" x1="7.711865" x2="8.084745" xlink:href="#a" y1="16.110384" y2="1.195131"/><linearGradient id="c" gradientUnits="userSpaceOnUse" x1="7.661017" x2="7.79661" xlink:href="#b" y1="3.042373" y2="1.957627"/><linearGradient id="d" gradientUnits="userSpaceOnUse" x1="103.77048" x2="103.69873" y1="308.59683" y2="307.69992"><stop offset="0" stop-color="#d70015"/><stop offset="1" stop-color="#ff453a"/></linearGradient><linearGradient id="e" gradientUnits="userSpaceOnUse" x1="7.305085" x2="7.288136" xlink:href="#d" y1="4.805085" y2=".127119"/><linearGradient id="f" gradientUnits="userSpaceOnUse" x1="6" x2="6" xlink:href="#d" y1="16" y2="13"/><linearGradient id="g" gradientUnits="userSpaceOnUse" x1="10" x2="10" xlink:href="#d" y1="16" y2="13"/><linearGradient id="h" gradientUnits="userSpaceOnUse" x1="13" x2="13" xlink:href="#b" y1="15" y2="14"/><linearGradient id="i" gradientUnits="userSpaceOnUse" x1="7.5" x2="7.5" xlink:href="#a" y1="13" y2="5.5"/><path d="m0 2v1h6v-1zm9 0v1h7v-1z" fill="url(#c)"/><path d="m6 0c-.554 0-1 .446-1 1v2c0 .554.446 1 1 1h2c.554 0 1-.446 1-1v-2c0-.554-.446-1-1-1zm0 1h2v2h-2z" fill="url(#e)"/><path d="m7.4921861 5.9921875c-.276145.00431-.496509.2316675-.492188.5078125l-.0000101 2.5h-2.1503781c-.094062-.096165-.2229027.0000143-.3574219 0-.4494023.0000914-.6705869.5468399-.3476562.8593749l2.9609372 2.9570321c.20264.263647.601383.259748.798828-.0078l2.947266-2.9511851c.377137-.3781782-.0014-.9034657-.409173-.8574219-.101882.011503-.205594-.094478-.299811 0h-2.142579v-2.5c.0044-.2822662-.225546-.5122291-.507812-.5078125z" fill="url(#i)" fill-rule="evenodd"/><path d="m2.9999998 13h3v3h-3z" fill="url(#f)"/><path d="m10 13h2.999999v3h-2.999999z" fill="url(#g)"/><g fill="url(#h)"><path d="m13 14h3v1h-3z"/><path d="m0 14h3v1h-3z"/></g></svg>

<?xml version="1.0" encoding="UTF-8" standalone="no"?>
<svg
   xmlns:dc="http://purl.org/dc/elements/1.1/"
   xmlns:cc="http://creativecommons.org/ns#"
   xmlns:rdf="http://www.w3.org/1999/02/22-rdf-syntax-ns#"
   xmlns:svg="http://www.w3.org/2000/svg"
   xmlns="http://www.w3.org/2000/svg"
   xmlns:xlink="http://www.w3.org/1999/xlink"
   xmlns:sodipodi="http://sodipodi.sourceforge.net/DTD/sodipodi-0.dtd"
   xmlns:inkscape="http://www.inkscape.org/namespaces/inkscape"
   viewBox="0 0 16 16"
   version="1.1"
   id="svg22"
   sodipodi:docname="sc_beziercutline.svg"
   inkscape:version="0.92.4 (unknown)">
  <metadata
     id="metadata28">
    <rdf:RDF>
      <cc:Work
         rdf:about="">
        <dc:format>image/svg+xml</dc:format>
        <dc:type
           rdf:resource="http://purl.org/dc/dcmitype/StillImage" />
        <dc:title></dc:title>
      </cc:Work>
    </rdf:RDF>
  </metadata>
  <defs
     id="defs26">
    <linearGradient
       gradientTransform="translate(-18.169492,-1.0595372)"
       id="b"
       gradientUnits="userSpaceOnUse"
       x1="7.7118649"
       x2="8.0847454"
       y1="16.110384"
       y2="1.1951309">
      <stop
         offset="0"
         stop-color="#0040dd"
         id="stop7" />
      <stop
         offset="1"
         stop-color="#0a84ff"
         id="stop9" />
    </linearGradient>
    <linearGradient
       inkscape:collect="always"
       xlink:href="#b"
       id="linearGradient853"
       x1="7.6610169"
       y1="3.0423729"
       x2="7.7966104"
       y2="1.9576272"
       gradientUnits="userSpaceOnUse" />
    <linearGradient
       id="a"
       gradientUnits="userSpaceOnUse"
       x1="103.77048"
       x2="103.69873"
       y1="308.59683"
       y2="307.69992">
      <stop
         offset="0"
         stop-color="#d70015"
         id="stop2" />
      <stop
         offset="1"
         stop-color="#ff453a"
         id="stop4" />
    </linearGradient>
    <linearGradient
       inkscape:collect="always"
       xlink:href="#a"
       id="linearGradient911"
       x1="7.3050847"
       y1="4.8050847"
       x2="7.2881355"
       y2="0.12711865"
       gradientUnits="userSpaceOnUse" />
    <linearGradient
       inkscape:collect="always"
       xlink:href="#a"
       id="linearGradient919"
       x1="6"
       y1="16"
       x2="6"
       y2="13"
       gradientUnits="userSpaceOnUse" />
    <linearGradient
       inkscape:collect="always"
       xlink:href="#a"
       id="linearGradient921"
       x1="10"
       y1="16"
       x2="10"
       y2="13"
       gradientUnits="userSpaceOnUse" />
    <linearGradient
       inkscape:collect="always"
       xlink:href="#b"
       id="linearGradient929"
       x1="13"
       y1="15"
       x2="13"
       y2="14"
       gradientUnits="userSpaceOnUse" />
    <linearGradient
       inkscape:collect="always"
       xlink:href="#b"
       id="linearGradient931"
       x1="13"
       y1="15"
       x2="13"
       y2="14"
       gradientUnits="userSpaceOnUse" />
    <linearGradient
       id="f"
       gradientUnits="userSpaceOnUse"
       x1="12.501792"
       x2="12.501792"
       xlink:href="#a-9"
       y1="11.499628"
       y2="3.9996283"
       gradientTransform="translate(-5.0017919,1.5003718)" />
    <linearGradient
       id="a-9"
       gradientUnits="userSpaceOnUse"
       x1="-19.355436"
       x2="-18.6299"
       y1="16.707636"
       y2="1.656788">
      <stop
         offset="0"
         stop-color="#0040dd"
         id="stop2-7" />
      <stop
         offset="1"
         stop-color="#0a84ff"
         id="stop4-7" />
    </linearGradient>
  </defs>
  <sodipodi:namedview
     pagecolor="#ffffff"
     bordercolor="#666666"
     borderopacity="1"
     objecttolerance="10"
     gridtolerance="10"
     guidetolerance="10"
     inkscape:pageopacity="0"
     inkscape:pageshadow="2"
     inkscape:window-width="1366"
     inkscape:window-height="706"
     id="namedview24"
     showgrid="false"
     inkscape:zoom="7.375"
     inkscape:cx="11.228131"
     inkscape:cy="5.9986983"
     inkscape:window-x="0"
     inkscape:window-y="0"
     inkscape:window-maximized="1"
     inkscape:current-layer="svg22">
    <inkscape:grid
       type="xygrid"
       id="grid933"
       spacingx="0.5"
       spacingy="0.5"
       empspacing="2" />
  </sodipodi:namedview>
  <path
     d="m0 2v1h6v-1zm9 0v1h7v-1z"
     fill="#808080"
     id="path2"
     style="fill-opacity:1;fill:url(#linearGradient853)" />
  <path
     d="m6 0c-.554 0-1 .446-1 1v3c0 .554.446 1 1 1h3c.554 0 1-.446 1-1v-3c0-.554-.446-1-1-1zm0 1h3v3h-3z"
     fill="#808080"
     id="path4"
     style="fill-opacity:1;fill:url(#linearGradient911)" />
  <path
     inkscape:connector-curvature="0"
     style="fill:url(#f);fill-rule:evenodd"
     d="M 7.4921861,5.9921875 C 7.2160411,5.9964975 6.9956771,6.223855 6.9999981,6.5 L 6.999988,9 H 4.8496099 C 4.7555479,8.903835 4.6267072,9.0000143 4.492188,9 4.0427857,9.0000914 3.8216011,9.5468399 4.1445318,9.8593749 L 7.105469,12.816407 c 0.20264,0.263647 0.601383,0.259748 0.798828,-0.0078 L 10.851563,9.8574219 C 11.2287,9.4792437 10.850163,8.9539562 10.44239,9 10.340508,9.011503 10.236796,8.905522 10.142579,9 H 8 V 6.5 C 8.0044,6.2177338 7.774454,5.9877709 7.492188,5.9921875 Z"
     id="path20"
     sodipodi:nodetypes="ccccccccccccccc" />
  <path
     d="m2.9999998 13h3v3h-3z"
     fill="#4d82b8"
     id="path12"
     style="fill-opacity:1;fill:url(#linearGradient919)" />
  <path
     d="m10 13h2.999999v3h-2.999999z"
     fill="#4d82b8"
     id="path14"
     style="fill-opacity:1;fill:url(#linearGradient921)" />
  <g
     fill="#808080"
     id="g20">
    <path
       d="m13 14h3v1h-3z"
       id="path16"
       style="fill-opacity:1;fill:url(#linearGradient931)" />
    <path
       d="m0 14h3v1h-3z"
       id="path18"
       style="fill-opacity:1;fill:url(#linearGradient929)" />
  </g>
</svg>
